assets/icons/qvision/album.svg

<svg xmlns="http://www.w3.org/2000/svg" height="24" viewBox="0 0 24 24" width="24"><path d="M0 0h24v24H0z" fill="none"/><path d="M12 2C6.48 2 2 6.48 2 12s4.48 10 10 10 10-4.48 10-10S17.52 2 12 2zm0 14.5c-2.49 0-4.5-2.01-4.5-4.5S9.51 7.5 12 7.5s4.5 2.01 4.5 4.5-2.01 4.5-4.5 4.5zm0-5.5c-.55 0-1 .45-1 1s.45 1 1 1 1-.45 1-1-.45-1-1-1z"/></svg>

<svg width="24" height="24" viewBox="0 0 24 24" fill="none" xmlns="http://www.w3.org/2000/svg">
<g clip-path="url(#clip0_147_1379)">
<path d="M12 2C6.48 2 2 6.48 2 12C2 17.52 6.48 22 12 22C17.52 22 22 17.52 22 12C22 6.48 17.52 2 12 2ZM12 16.5C9.51 16.5 7.5 14.49 7.5 12C7.5 9.51 9.51 7.5 12 7.5C14.49 7.5 16.5 9.51 16.5 12C16.5 14.49 14.49 16.5 12 16.5ZM12 11C11.45 11 11 11.45 11 12C11 12.55 11.45 13 12 13C12.55 13 13 12.55 13 12C13 11.45 12.55 11 12 11Z" fill="#323232"/>
</g>
<defs>
<clipPath id="clip0_147_1379">
<rect width="24" height="24" fill="white"/>
</clipPath>
</defs>
</svg>
